public/assets/img/custody1.svg

<svg width="48" height="48" viewBox="0 0 48 48" fill="none" xmlns="http://www.w3.org/2000/svg">
<path fill-rule="evenodd" clip-rule="evenodd" d="M26.2266 26C25.3516 26.5 24.6953 26.7656 24.0078 26.7656C23.3047 26.7656 22.6484 26.5 21.7734 26L9.69531 19C8.32031 18.1875 7.67969 17.4844 7.67969 16.3906C7.67969 15.2969 8.32031 14.5938 9.69531 13.7812L21.7734 6.78125C22.6484 6.28125 23.3047 6.03125 24.0078 6.03125C24.6953 6.03125 25.3516 6.28125 26.2266 6.78125L38.3203 13.7812C39.6797 14.5938 40.3203 15.2969 40.3203 16.3906C40.3203 17.4844 39.6797 18.1875 38.3203 19L26.2266 26ZM23.3984 22.9062C23.6328 23.0312 23.8047 23.0938 24.0078 23.0938C24.1953 23.0938 24.3672 23.0312 24.6016 22.9062L35.8047 16.5469C35.8672 16.5 35.8984 16.4688 35.8984 16.3906C35.8984 16.3281 35.8672 16.2812 35.8047 16.25L24.6016 9.89062C24.3672 9.75 24.1953 9.6875 24.0078 9.6875C23.8047 9.6875 23.6328 9.75 23.3984 9.89062L12.1953 16.25C12.1328 16.2812 12.1016 16.3281 12.1016 16.3906C12.1016 16.4688 12.1328 16.5 12.1953 16.5469L23.3984 22.9062ZM24.0078 34.5312C24.6484 34.5312 25.2266 34.2344 26.0234 33.7656L38.9609 26.1562C39.8516 25.6406 40.3359 24.9531 40.3359 24.125C40.3359 23.2969 39.8203 22.6406 39.1953 22.25L25.1016 30.4219C24.6641 30.6875 24.3359 30.8438 24.0078 30.8438C23.6641 30.8438 23.3359 30.6875 22.8984 30.4219L8.80469 22.25C8.19531 22.6406 7.67969 23.2969 7.67969 24.125C7.67969 24.9531 8.16406 25.6406 9.03906 26.1562L21.9766 33.7656C22.7734 34.2344 23.3516 34.5312 24.0078 34.5312ZM26.0234 41.125C25.2266 41.5938 24.6484 41.8906 24.0078 41.8906C23.3516 41.8906 22.7734 41.5938 21.9766 41.125L9.03906 33.5312C8.16406 33.0156 7.67969 32.3125 7.67969 31.4844C7.67969 30.6562 8.19531 30 8.80469 29.6094L22.8984 37.7969C23.3359 38.0469 23.6641 38.2031 24.0078 38.2031C24.3359 38.2031 24.6641 38.0469 25.1016 37.7969L39.1953 29.6094C39.8203 30 40.3359 30.6562 40.3359 31.4844C40.3359 32.3125 39.8359 33.0156 38.9609 33.5312L26.0234 41.125Z" fill="white"/>
</svg>

<svg width="48" height="48" fill="none" xmlns="http://www.w3.org/2000/svg"><path fill-rule="evenodd" clip-rule="evenodd" d="M26.227 26c-.875.5-1.532.766-2.22.766-.702 0-1.359-.266-2.234-.766L9.695 19c-1.375-.813-2.015-1.516-2.015-2.61 0-1.093.64-1.796 2.015-2.609l12.078-7c.875-.5 1.532-.75 2.235-.75.687 0 1.344.25 2.219.75l12.093 7c1.36.813 2 1.516 2 2.61 0 1.093-.64 1.797-2 2.609l-12.093 7Zm-2.829-3.094c.235.125.407.188.61.188.187 0 .36-.063.594-.188l11.203-6.36c.062-.046.093-.077.093-.155 0-.063-.03-.11-.093-.141L24.602 9.89c-.235-.14-.407-.203-.594-.203-.203 0-.375.063-.61.204L12.195 16.25c-.062.031-.093.078-.093.14 0 .079.03.11.093.157l11.203 6.36Zm.61 11.625c.64 0 1.219-.297 2.015-.765l12.938-7.61c.89-.515 1.375-1.203 1.375-2.031 0-.828-.516-1.484-1.14-1.875l-14.094 8.172c-.438.265-.766.422-1.094.422-.344 0-.672-.157-1.11-.422L8.805 22.25c-.61.39-1.125 1.047-1.125 1.875 0 .828.484 1.516 1.36 2.031l12.937 7.61c.796.468 1.375.765 2.03.765Zm2.015 6.594c-.796.469-1.375.766-2.015.766-.656 0-1.235-.297-2.031-.766L9.039 33.531c-.875-.515-1.36-1.218-1.36-2.047 0-.828.516-1.484 1.126-1.875l14.093 8.188c.438.25.766.406 1.11.406.328 0 .656-.156 1.094-.406l14.093-8.188c.625.391 1.14 1.047 1.14 1.875 0 .828-.5 1.532-1.374 2.047l-12.938 7.594Z" fill="#fff"/></svg>
